projects/seb-pictograms/svg/regular/106-Picto-Regular_black.svg

<svg xmlns="http://www.w3.org/2000/svg" viewBox="0 0 170 170"><path d="M153.4 123.6l-1.9-5.7-3.9 1.3-31.5-95.3a3 3 0 00-3.8-1.9L61.9 38.7a3.2 3.2 0 00-1.9 3.8l31.6 95.3-3.9 1.3 1.9 5.7zM66.6 43.5l44.7-14.8 30.7 92.4-44.8 14.8zM83.8 141a18.1 18.1 0 00-9.1-10.6 18.4 18.4 0 00-3.2-1.2L31 7a3 3 0 00-2.8-2H4.5v6H26l39 117.6a18.3 18.3 0 00-4.2.8 18.2 18.2 0 1023 11.6zm-6.4 11.2a12.2 12.2 0 11.7-9.3 12.2 12.2 0 01-.7 9.4z"/><path d="M81.239 52.435l23.546-7.787 1.884 5.697-23.546 7.787z"/></svg>

<svg id="PIKTO_REGULAR" xmlns="http://www.w3.org/2000/svg" viewBox="0 0 170 170"><title>regular_black</title><path d="M153.4,123.6l-1.9-5.7-3.9,1.3L116.1,23.9a3,3,0,0,0-3.8-1.9L61.9,38.7A3.2,3.2,0,0,0,60,42.5l31.6,95.3-3.9,1.3,1.9,5.7ZM66.6,43.5l44.7-14.8L142,121.1,97.2,135.9Z"/><path d="M83.8,141a18.1,18.1,0,0,0-9.1-10.6,18.4,18.4,0,0,0-3.2-1.2L31,7A3,3,0,0,0,28.2,5H4.5v6H26L65,128.6a18.3,18.3,0,0,0-4.2.8A18.2,18.2,0,1,0,83.8,141Zm-6.4,11.2a12.2,12.2,0,1,1,.7-9.3A12.2,12.2,0,0,1,77.4,152.3Z"/><rect x="81.6" y="48.3" width="24.8" height="6" transform="translate(-11.4 32.2) rotate(-18.3)"/></svg>
